X:34
T:En sup till
R:sl\"angpolska
H:efter August Str\"omberg, J\"at
H:Jfr #79, #189, #230
A:Sm{\aa}land
Z:id:hn-sp-34
M:3/4
L:1/16
K:Gm
G4 ^F4 G4 | A3G ^F2G2 A4 | B3d c2B2 A2G2 | ^FGAF D8 |
w:En sup till, det be-h\"ov-er jag, f{\aa}r jag in-te det s{\aa} m{\aa}r jag in-te bra,
G4 ^F4 G4 | A3G ^F2G2 A4 | B3d c2B2 A2G2 |1 ^FGAF G8 :|2 ^FGAF G6=B2 ||
w:En, tv{\aa}, tre, fy-ra el-ler fem, f{\aa}r jag in-te det s{\aa} g{\aa}r jag in-te hem. g{\aa}r jag in-te hem.
K:G
|: d2B2 BGBd BGBd | d2c2 AFAc AFAc | B2AB c2B2 A2G2 | FGAF D6 B2 |
d2B2 BGBd BGBd | d2c2 AFAc AFAc | B2AB c2B2 A2G2 |1 FGAF G6 B2 :|2 FGAF G8||
<end>
<start>
